X:1
T: Miss Reay of Killingworth's Favourite
C:
R:Jig
Q:180
K:G
M:6/8
L:1/16
g6f6|g4b2 d2e2f2|g2f2e2 d2c2B2|A2B2G2 F2E2D2|
g4g2 f4f2|g4b2 d2e2f2|g2f2e2 a2g2f2|e2d2^c2 d6|
|:d6b4d2|c2B2c2 a4c2|B2d2g2 d2c2B2|A2B2G2 F2E2D2|
d4b2 d2c2B2|c4a2 c2B2A2|B2d2g2 a2g2f2|g6G6:|
g2f2g2 e2f2g2|a2b2g2 f2e2d2|e2f2g2 d2c2B2|A2B2G2 F2E2D2|
E2F2G2 F2G2A2|G2A2B2 A2B2c2|d4b2 a2g2f2|g6G6||
